app/dist/common/images/southland.svg

<svg height="18" viewBox="0 0 18 18" width="18" xmlns="http://www.w3.org/2000/svg"><path d="m0 0h18v18h-18z" fill="#f0f3fa"/><path d="m10 15-3-2v-2l3 2zm-2-12 3 2v2l-3-2z" fill="#f9ab0c"/><path d="m7 13-1.47-1.05c-.43-.3-.53-.52-.53-.88v-2.07c.15.37.37.6.56.73l1.44 1.02zm4-8 1.47 1.05c.43.3.53.52.53.88v2.07a1.6 1.6 0 0 0 -.56-.73l-1.44-1.02zm-1 6v2l-2-1.33zm-2-4v-2l2 1.33z" fill="#facd09"/><path d="m8 11.67v-1.67l2 1zm2-5.34v1.67l-2-1zm-3 .67c-.8.19-2 .6-2 1.52v.9c.15.34.37.54.56.66l1.44.92zm4 4c.8-.19 2-.6 2-1.52v-.9a1.47 1.47 0 0 0 -.56-.66l-1.44-.92z" fill="#f9ab0c"/></svg>

<!-- by TradingView --><svg width="18" height="18" viewBox="0 0 18 18" xmlns="http://www.w3.org/2000/svg"><path fill="#F0F3FA" d="M0 0h18v18H0z"/><path d="m10 15-3-2v-2l3 2v2ZM8 3l3 2v2L8 5V3Z" fill="#F9AB0C"/><path d="m7 13-1.47-1.05c-.43-.3-.53-.52-.53-.88V9c.15.37.37.6.56.73L7 10.75V13ZM11 5l1.47 1.05c.43.3.53.52.53.88V9a1.6 1.6 0 0 0-.56-.73L11 7.25V5ZM10 11v2l-2-1.33 2-.67ZM8 7V5l2 1.33L8 7Z" fill="#FACD09"/><path d="M8 11.67V10l2 1-2 .67ZM10 6.33V8L8 7l2-.67ZM7 7c-.8.19-2 .6-2 1.52v.9c.15.34.37.54.56.66L7 11V7ZM11 11c.8-.19 2-.6 2-1.52v-.9a1.47 1.47 0 0 0-.56-.66L11 7v4Z" fill="#F9AB0C"/></svg>
